X:1
T:Title
%%score { ( 1 4 ) | ( 2 3 ) }
L:1/8
M:3/4
K:G
V:1 treble nm="Grand Piano"
V:4 treble 
V:2 bass 
V:3 bass 
V:1
 z6[Q:1/4=88] | [DB]>_B [D=B]3 [Ec] | [CA]>^G [CA]3 D | [CA]>^G [CA]3 [DB] | [B,G]>E [B,D]3 [B,D] | %5
 [DB]>_B [D=B]3 [=Fd] | [Ec]>E [CA]3 [CE] | [^CA]>B [CA]3 E |[M:5/8] G>F A3 |[M:1/4] [Fd]2 | %10
[M:3/4] z2 d4 | [GB]>[FA] [FA]3 [D,D] | [Fc]4[K:bass][K:treble] z2 |[M:5/8] [DGB]- [DGB]3 z | %14
[M:1/8] D |[M:3/4] [G,DG]>A B[Ad] [^Ge][EB] | [Ec]4 [A,EA]2 | [B,DG][A,DF] [DFB]3 [CFA] | %18
[M:5/8] [B,DG]- [B,DG]3 z |] %19
V:2
 z2 z2 z D | .G,,>^C G,D, G,D, | .D,,>B, F,D, F,D, | .D,,>B, F,D, F,D, | z G, z2 z2 | %5
 .G,,>^C G,D, G,B,, | .C,>C A,E, A,E, | .A,,>^C G,E, G,[E,C] |[M:5/8] C>C [D,F,C]3 | %9
[M:1/4] [D,C]2 |[M:3/4][K:treble] [B,G]>[DG] [B,G]3[K:bass] [G,B,D] | [D,D]>[D,D] [D,D]4 | A,4 z2 | %13
[M:5/8] G,D, G,,2 z |[M:1/8] D, |[M:3/4] B,,>[D,F,D] [G,D][=F,A,] [E,B,][E,^G,] | A,4 z2 | %17
 D,D, D,D, D,D, |[M:5/8] G,,- G,,3 z |] %19
V:3
 x6 | z D, z2 z2 | z D, z2 z2 | z D, z2 z2 | .G,,>C G,G, G,G, | z D, z2 z2 | z E, z2 z2 | %7
 z E, z2 z2 |[M:5/8] [D,A,]2 z z2 |[M:1/4] x2 |[M:3/4][K:treble] G,4 z2[K:bass] | x6 | %12
 .D,2 z [D,^G,] [D,A,]D, |[M:5/8] x5 |[M:1/8] x |[M:3/4] x6 | A,,A,, A,,2 C,2 | x6 |[M:5/8] x5 |] %19
V:4
 x6 | x6 | x6 | x6 | x6 | x6 | x6 | x6 |[M:5/8] x5 |[M:1/4] x2 |[M:3/4] d>B z G, G,G | x6 | %12
 z[K:bass] D, D,[K:treble][=FB] [^Fc][DFd] |[M:5/8] x5 |[M:1/8] x |[M:3/4] x6 | x6 | x6 | %18
[M:5/8] x5 |] %19

